source/icons-source/ad/elevator.svg

<svg width="24" height="24" viewBox="0 0 24 24" fill="none" xmlns="http://www.w3.org/2000/svg">
<path fill-rule="evenodd" clip-rule="evenodd" d="M13 0H0V24H24V0H13ZM2 22V2H11V22H2ZM13 22H22V2H13V22ZM17.49 18L19.49 15H15.49L17.49 18ZM4.49 9L6.49 6L8.49 9H4.49Z" fill="#333333"/>
</svg>

<svg width="24" height="24" fill="none" version="1.1" viewBox="0 0 24 24" xmlns="http://www.w3.org/2000/svg">
 <path d="m13 0h-13v24h24v-24zm-11 22v-20h9v20zm11 0h9v-20h-9zm4.49-4 2-3h-4zm-13-9 2-3 2 3z" clip-rule="evenodd" fill="#333" fill-rule="evenodd"/>
</svg>
